X: 500
U:~=!turn!
M:C
L:1/8
K:Bb
d | LB2 FB DBFd | B2 (G/F/E/D/) ECCd | LB2 FB DBFB | (E//F/<LG) F>D LB,3 d | LB2 FB DBFd |
bgfd LB3 b | f2 df Bfdb | f2 (e/d/c/B/) A Lc2 e | (3dcB (3cBA (3BAG (3FED | (E//F/<G) F>D B,3 |]


